!!!OTL: ES BRAUST EIN RUF WIE DONNERHALL
!!!ARE: Europa, Mitteleuropa, Deutschland
!!!SCT: B0003
!!!YEM: Copyright 1995, estate of Helmut Schaffrath.
**kern
*ICvox
*Ivox
*M4/4
*k[]
*C:
{4C
=1
4.C
8E
4G
4G
=2
4.E
8G
4c}
{4c
=3
4d
4e
4f
4d
=4
4.c
8B
4B}
{4G
=5
4.e
8e
8.d
16d
8.c#
16c#
=6
2d
4r}
{4B
=7
8.A
16A
8.B
16c
4B
4A
=8
2G
4r}
{4G
=9
4.d
8c
4B
4B
=10
4.c
8G
4G}
{4G
=11
4.f
8e
4d
4d
=12
4.e
8d
4c
4r}
=13
{2G
4G
4G#
=14
4.A
8B
4c}
{4c
=15
2c
2d
=16
2.e
4r}
=17
{2c
4c
4c
=18
4.c
8e
4g}
{4f
=19
2e
2d
=20
2.c}
==
!!!AGN: politisch, national, Vaterlands - Lied
!!!ONB: ESAC (Essen Associative Code) Database: BOEHME
!!!AMT: simple quadruple
!!!AIN: vox
!!!EED: Helmut Schaffrath
!!!EEV: 1.0
*-
